src/images/postmark-stamp.svg

<?xml version="1.0" encoding="UTF-8"?>
<svg width="50px" height="29px" viewBox="0 0 50 29" version="1.1" xmlns="http://www.w3.org/2000/svg" xmlns:xlink="http://www.w3.org/1999/xlink">
    <!-- Generator: Sketch 57.1 (83088) - https://sketch.com -->
    <title>Group 11</title>
    <desc>Created with Sketch.</desc>
    <g id="Wireframes" stroke="none" stroke-width="1" fill="none" fill-rule="evenodd">
        <g id="Results---code---multiple-reasons-Copy-4" transform="translate(-481.000000, -1525.000000)" fill="#FFD633">
            <g id="Group-11" transform="translate(481.000000, 1525.000000)">
                <path d="M24.2222222,0 C24.2222222,0.889792097 24.9435412,1.61111111 25.8333333,1.61111111 C26.7231254,1.61111111 27.4444444,0.889792097 27.4444444,0 L30.6666667,0 C30.6666667,0.889792097 31.3879857,1.61111111 32.2777778,1.61111111 C33.1675699,1.61111111 33.8888889,0.889792097 33.8888889,0 L37.1111111,0 C37.1111111,0.889792097 37.8324301,1.61111111 38.7222222,1.61111111 C39.6120143,1.61111111 40.3333333,0.889792097 40.3333333,0 L43.5555556,0 C43.5555556,0.889792097 44.2768746,1.61111111 45.1666667,1.61111111 C46.0564588,1.61111111 46.7777778,0.889792097 46.7777778,0 L48.3888889,-4.4408921e-16 C48.3888889,0.889792097 49.1102079,1.61111111 50,1.61111111 L50,3.22222222 C49.1102079,3.22222222 48.3888889,3.94354124 48.3888889,4.83333333 C48.3888889,5.72312543 49.1102079,6.44444444 50,6.44444444 L50,9.66666667 C49.1102079,9.66666667 48.3888889,10.3879857 48.3888889,11.2777778 C48.3888889,12.1675699 49.1102079,12.8888889 50,12.8888889 L50,16.1111111 C49.1102079,16.1111111 48.3888889,16.8324301 48.3888889,17.7222222 C48.3888889,18.6120143 49.1102079,19.3333333 50,19.3333333 L50,22.5555556 C49.1102079,22.5555556 48.3888889,23.2768746 48.3888889,24.1666667 C48.3888889,25.0564588 49.1102079,25.7777778 50,25.7777778 L50,27.3888889 C49.1102079,27.3888889 48.3888889,28.1102079 48.3888889,29 L46.7777778,29 C46.7777778,28.1102079 46.0564588,27.3888889 45.1666667,27.3888889 C44.2768746,27.3888889 43.5555556,28.1102079 43.5555556,29 L40.3333333,29 C40.3333333,28.1102079 39.6120143,27.3888889 38.7222222,27.3888889 C37.8324301,27.3888889 37.1111111,28.1102079 37.1111111,29 L33.8888889,29 C33.8888889,28.1102079 33.1675699,27.3888889 32.2777778,27.3888889 C31.3879857,27.3888889 30.6666667,28.1102079 30.6666667,29 L27.4444444,29 C27.4444444,28.1102079 26.7231254,27.3888889 25.8333333,27.3888889 C24.9435412,27.3888889 24.2222222,28.1102079 24.2222222,29 L22.6111111,29 C22.6111111,28.1102079 21.8897921,27.3888889 21,27.3888889 L21,25.7777778 C21.8897921,25.7777778 22.6111111,25.0564588 22.6111111,24.1666667 C22.6111111,23.2768746 21.8897921,22.5555556 21,22.5555556 L21,19.3333333 C21.8897921,19.3333333 22.6111111,18.6120143 22.6111111,17.7222222 C22.6111111,16.8324301 21.8897921,16.1111111 21,16.1111111 L21,12.8888889 C21.8897921,12.8888889 22.6111111,12.1675699 22.6111111,11.2777778 C22.6111111,10.3879857 21.8897921,9.66666667 21,9.66666667 L21,6.44444444 C21.8897921,6.44444444 22.6111111,5.72312543 22.6111111,4.83333333 C22.6111111,3.94354124 21.8897921,3.22222222 21,3.22222222 L21,1.61111111 C21.8897921,1.61111111 22.6111111,0.889792097 22.6111111,2.22044605e-16 L24.2222222,0 Z M46.7777778,3.22222222 L24.2222222,3.22222222 L24.2222222,25.7777778 L46.7777778,25.7777778 L46.7777778,3.22222222 Z M45.1666667,4.83333333 L45.1666667,24.1666667 L25.8333333,24.1666667 L25.8333333,4.83333333 L45.1666667,4.83333333 Z M35.6227214,8.49648709 L30.9888102,8.49648709 L30.9888102,10.0493842 L32.5417074,10.0493842 L32.5417074,19.3915473 L30.9888102,19.3915473 L30.9888102,20.9444444 L36.043986,20.9444444 L36.043986,19.3915473 L34.4250081,19.3915473 L34.4250081,16.1701118 L36.0605062,16.1701118 C37.7290529,16.1590983 38.9129875,15.8011645 39.6123454,15.0962999 C40.3117033,14.3914353 40.661377,13.471821 40.661377,12.3374295 C40.661377,11.4233081 40.5016835,10.6895441 40.1822917,10.1361152 C39.8628999,9.58268631 39.335636,9.17106255 38.6004842,8.90123155 C37.8653324,8.63140056 36.8727547,8.49648709 35.6227214,8.49648709 Z M34.4250081,10.0493842 L35.7218424,10.0493842 C36.8287002,10.0493842 37.6106477,10.2297277 38.0677083,10.5904202 C38.524769,10.9511126 38.7532959,11.5196766 38.7532959,12.296129 C38.7532959,12.9073788 38.6459158,13.3850826 38.4311523,13.7292548 C38.2163889,14.073427 37.8804819,14.3157206 37.4234212,14.4561428 C37.0234931,14.5790123 36.505521,14.6481256 35.8694926,14.6634841 L35.589681,14.6667752 L34.4250081,14.6667752 L34.4250081,10.0493842 L35.7218424,10.0493842 Z" id="Combined-Shape"></path>
                <path d="M6.97688564,14 C10.6538929,14 13.4635036,15.8636364 15.5,17.2045455 C17.2725061,18.3636364 19.7427007,19.0909091 22.4768856,19.0909091 C26.1538929,19.0909091 29.3406326,17.7954545 31,15.8863636 L31,16.7954545 C29.3406326,18.7045455 26.1538929,20 22.4768856,20 C19.7427007,20 17.2725061,19.2727273 15.5,18.1136364 C13.4635036,16.7727273 10.6538929,14.9090909 6.97688564,14.9090909 C4.24270073,14.9090909 1.77250608,15.6363636 0,16.7954545 L0,15.8863636 C1.77250608,14.7272727 4.24270073,14 6.97688564,14 Z M6.97688564,10 C10.6538929,10 13.4635036,11.8636364 15.5,13.2045455 C17.2725061,14.3636364 19.7427007,15.0909091 22.4768856,15.0909091 C26.1538929,15.0909091 29.3406326,13.7954545 31,11.8863636 L31,12.7954545 C29.3406326,14.7045455 26.1538929,16 22.4768856,16 C19.7427007,16 17.2725061,15.2727273 15.5,14.1136364 C13.4635036,12.7727273 10.6538929,10.9090909 6.97688564,10.9090909 C4.24270073,10.9090909 1.77250608,11.6363636 0,12.7954545 L0,11.8863636 C1.77250608,10.7272727 4.24270073,10 6.97688564,10 Z M6.97688564,6 C10.6538929,6 13.4635036,7.86363636 15.5,9.20454545 C17.2725061,10.3636364 19.7427007,11.0909091 22.4768856,11.0909091 C26.1538929,11.0909091 29.3406326,9.79545455 31,7.88636364 L31,8.79545455 C29.3406326,10.7045455 26.1538929,12 22.4768856,12 C19.7427007,12 17.2725061,11.2727273 15.5,10.1136364 C13.4635036,8.77272727 10.6538929,6.90909091 6.97688564,6.90909091 C4.24270073,6.90909091 1.77250608,7.63636364 0,8.79545455 L0,7.88636364 C1.77250608,6.72727273 4.24270073,6 6.97688564,6 Z" id="Combined-Shape" opacity="0.268484933"></path>
            </g>
        </g>
    </g>
</svg>

<svg width="50" height="29" viewBox="0 0 50 29" xmlns="http://www.w3.org/2000/svg"><title>Group 11</title><desc>Created with Sketch.</desc><g fill="#FFD633"><path d="M24.222 0c0 .89.721 1.611 1.611 1.611s1.611-.721 1.611-1.611h3.222c0 .89.721 1.611 1.611 1.611s1.611-.721 1.611-1.611h3.222c0 .89.721 1.611 1.611 1.611s1.611-.721 1.611-1.611h3.222c0 .89.721 1.611 1.611 1.611s1.611-.721 1.611-1.611h1.611c0 .89.721 1.611 1.611 1.611v1.611c-.89 0-1.611.721-1.611 1.611s.721 1.611 1.611 1.611v3.222c-.89 0-1.611.721-1.611 1.611s.721 1.611 1.611 1.611v3.222c-.89 0-1.611.721-1.611 1.611s.721 1.611 1.611 1.611v3.222c-.89 0-1.611.721-1.611 1.611s.721 1.611 1.611 1.611v1.611c-.89 0-1.611.721-1.611 1.611h-1.611c0-.89-.721-1.611-1.611-1.611s-1.611.721-1.611 1.611h-3.222c0-.89-.721-1.611-1.611-1.611s-1.611.721-1.611 1.611h-3.222c0-.89-.721-1.611-1.611-1.611s-1.611.721-1.611 1.611h-3.222c0-.89-.721-1.611-1.611-1.611s-1.611.721-1.611 1.611h-1.611c0-.89-.721-1.611-1.611-1.611v-1.611c.89 0 1.611-.721 1.611-1.611s-.721-1.611-1.611-1.611v-3.222c.89 0 1.611-.721 1.611-1.611s-.721-1.611-1.611-1.611v-3.222c.89 0 1.611-.721 1.611-1.611s-.721-1.611-1.611-1.611v-3.222c.89 0 1.611-.721 1.611-1.611s-.721-1.611-1.611-1.611v-1.611c.89 0 1.611-.721 1.611-1.611h1.611zm22.556 3.222h-22.556v22.556h22.556v-22.556zm-1.611 1.611v19.333h-19.333v-19.333h19.333zm-9.544 3.663h-4.634v1.553h1.553v9.342h-1.553v1.553h5.055v-1.553h-1.619v-3.221h1.635c1.669-.011 2.852-.369 3.552-1.074.699-.705 1.049-1.624 1.049-2.759 0-.914-.16-1.648-.479-2.201-.319-.553-.847-.965-1.582-1.235-.735-.27-1.728-.405-2.978-.405zm-1.198 1.553h1.297c1.107 0 1.889.18 2.346.541.457.361.686.929.686 1.706 0 .611-.107 1.089-.322 1.433-.215.344-.551.586-1.008.727-.4.123-.918.192-1.554.207l-.28.003h-1.165v-4.617h1.297z" id="Combined-Shape"/><path d="M6.977 14c3.677 0 6.487 1.864 8.523 3.205 1.773 1.159 4.243 1.886 6.977 1.886 3.677 0 6.864-1.295 8.523-3.205v.909c-1.659 1.909-4.846 3.205-8.523 3.205-2.734 0-5.204-.727-6.977-1.886-2.036-1.341-4.846-3.205-8.523-3.205-2.734 0-5.204.727-6.977 1.886v-.909c1.773-1.159 4.243-1.886 6.977-1.886zm0-4c3.677 0 6.487 1.864 8.523 3.205 1.773 1.159 4.243 1.886 6.977 1.886 3.677 0 6.864-1.295 8.523-3.205v.909c-1.659 1.909-4.846 3.205-8.523 3.205-2.734 0-5.204-.727-6.977-1.886-2.036-1.341-4.846-3.205-8.523-3.205-2.734 0-5.204.727-6.977 1.886v-.909c1.773-1.159 4.243-1.886 6.977-1.886zm0-4c3.677 0 6.487 1.864 8.523 3.205 1.773 1.159 4.243 1.886 6.977 1.886 3.677 0 6.864-1.295 8.523-3.205v.909c-1.659 1.909-4.846 3.205-8.523 3.205-2.734 0-5.204-.727-6.977-1.886-2.036-1.341-4.846-3.205-8.523-3.205-2.734 0-5.204.727-6.977 1.886v-.909c1.773-1.159 4.243-1.886 6.977-1.886z" opacity=".268"/></g></svg>
